;FLAVOR:Marlin
;TIME:3653
;Filament used: 2.90352m
;Layer height: 0.2
;MINX:72.431
;MINY:70.127
;MINZ:0.2
;MAXX:141.57
;MAXY:163.864
;MAXZ:4.4
;Generated with Cura_SteamEngine 4.8.0
M140 S60
M105
M190 S60
M104 S200
M105
M109 S200
M82 ;absolute extrusion mode
;Layer height: 0.2
;Walls: 1
;Fill: 99
;Top\Bottom Thickness: 0.6
G90 ;absolute positioning
M82 ;set extruder to absolute mode
G4 S1 ;1 millisecond pause to buffer the bep bep 
M300 S2 ;FAB bep bep (start the print, go check the oozing and skirt lines adesion) 
G4 S1 ;1 second pause to reach the printer (run fast)
G92 E0 ;zero the extruded length 
G1 F200 E35    ;slowly extrude 35mm of filament to clean the nozzle and build up extrusion pressure 
G92 E0 ;zero the extruded length again 
;print
G92 E0
G92 E0
G1 F1380 E-2.5
;LAYER_COUNT:22
;LAYER:0
M107
G0 F8400 X74.855 Y72.613 Z0.2
;TYPE:SKIRT
G1 F1380 E0
G1 F2700 X75.441 Y72.084 E0.02626
G1 X76.078 Y71.617 E0.05253
G1 X76.824 Y71.17 E0.08145
G1 X77.527 Y70.811 E0.10771
G1 X78.263 Y70.524 E0.13398
G1 X79.024 Y70.314 E0.16024
G1 X79.803 Y70.181 E0.18652
G1 X80.721 Y70.127 E0.21711
G1 X133.262 Y70.127 E1.96463
G1 X134.051 Y70.167 E1.99091
G1 X134.831 Y70.286 E2.01715
G1 X135.596 Y70.484 E2.04343
G1 X136.336 Y70.758 E2.06968
G1 X136.85 Y71.001 E2.08859
G1 X137.211 Y71.188 E2.10211
G1 X137.893 Y71.586 E2.12837
G1 X138.531 Y72.051 E2.15463
G1 X139.119 Y72.579 E2.18092
G1 X139.65 Y73.163 E2.20717
G1 X140.12 Y73.798 E2.23344
G1 X140.523 Y74.477 E2.25971
G1 X140.791 Y75.039 E2.28041
G1 X140.93 Y75.363 E2.29214
G1 X141.204 Y76.103 E2.31839
G1 X141.426 Y76.988 E2.34873
G1 X141.433 Y77.025 E2.34999
G1 X141.54 Y77.807 E2.37624
G1 X141.569 Y78.475 E2.39848
G1 X141.57 Y155.444 E4.95848
G1 X141.53 Y156.233 E4.98475
G1 X141.337 Y157.336 E5.02199
G1 X141.254 Y157.668 E5.03338
G1 X141.024 Y158.423 E5.05963
G1 X140.719 Y159.152 E5.08591
G1 X140.341 Y159.845 E5.11217
G1 X139.896 Y160.497 E5.13842
G1 X139.151 Y161.342 E5.17589
G1 X138.933 Y161.556 E5.18605
G1 X138.342 Y162.08 E5.21232
G1 X137.702 Y162.542 E5.23857
G1 X137.017 Y162.936 E5.26486
G1 X136.297 Y163.259 E5.2911
G1 X135.43 Y163.539 E5.32141
G1 X135.149 Y163.612 E5.33106
G1 X134.376 Y163.772 E5.35732
G1 X133.59 Y163.853 E5.3836
G1 X133.188 Y163.863 E5.39697
G1 X80.815 Y163.864 E7.13891
G1 X80.026 Y163.824 E7.16518
G1 X79.246 Y163.705 E7.19143
G1 X78.482 Y163.507 E7.21768
G1 X78.147 Y163.402 E7.22935
G1 X77.407 Y163.128 E7.2556
G1 X76.697 Y162.78 E7.2819
G1 X76.027 Y162.363 E7.30814
G1 X75.402 Y161.88 E7.33442
G1 X74.83 Y161.336 E7.36067
G1 X74.311 Y160.741 E7.38693
G1 X73.835 Y160.111 E7.41319
G1 X73.425 Y159.436 E7.43946
G1 X73.085 Y158.723 E7.46573
G1 X72.82 Y157.98 E7.49197
G1 X72.636 Y157.244 E7.5172
G1 X72.579 Y156.956 E7.52697
G1 X72.466 Y156.175 E7.55322
G1 X72.431 Y155.442 E7.57762
G1 X72.431 Y78.475 E10.13756
G1 X72.471 Y77.686 E10.16383
G1 X72.59 Y76.906 E10.19007
G1 X72.788 Y76.141 E10.21636
G1 X72.989 Y75.578 E10.23624
G1 X73.127 Y75.233 E10.2486
G1 X73.457 Y74.516 E10.27485
G1 X73.858 Y73.835 E10.30114
G1 X74.325 Y73.199 E10.32738
G1 X74.855 Y72.613 E10.35366
G0 F8400 X75.195 Y72.84
G1 F2700 X75.772 Y72.331 E10.37925
G1 X76.672 Y71.72 E10.41543
G1 X77.024 Y71.517 E10.42895
G1 X77.709 Y71.168 E10.45452
G1 X78.427 Y70.891 E10.48011
G1 X79.17 Y70.691 E10.5057
G1 X79.929 Y70.569 E10.53127
G1 X80.721 Y70.527 E10.55765
G1 X133.262 Y70.527 E12.30517
G1 X134.03 Y70.567 E12.33075
G1 X134.79 Y70.686 E12.35634
G1 X135.533 Y70.884 E12.38191
G1 X136.252 Y71.158 E12.4075
G1 X137.027 Y71.543 E12.43628
G1 X137.69 Y71.932 E12.46185
G1 X138.31 Y72.388 E12.48745
G1 X138.879 Y72.905 E12.51302
G1 X139.391 Y73.479 E12.5386
G1 X139.841 Y74.103 E12.56419
G1 X140.224 Y74.77 E12.58977
G1 X140.563 Y75.52 E12.61715
G1 X140.829 Y76.242 E12.64274
G1 X141.033 Y77.062 E12.67084
G1 X141.04 Y77.099 E12.6721
G1 X141.144 Y77.862 E12.69771
G1 X141.169 Y78.475 E12.71811
G1 X141.17 Y155.444 E15.27811
G1 X141.13 Y156.212 E15.30369
G1 X140.949 Y157.239 E15.33838
G1 X140.866 Y157.571 E15.34976
G1 X140.641 Y158.306 E15.37532
G1 X140.341 Y159.014 E15.4009
G1 X139.969 Y159.688 E15.4265
G1 X139.529 Y160.318 E15.45206
G1 X138.871 Y161.057 E15.48497
G1 X138.653 Y161.271 E15.49513
G1 X138.077 Y161.78 E15.5207
G1 X137.451 Y162.227 E15.54628
G1 X136.782 Y162.607 E15.57187
G1 X136.077 Y162.915 E15.59746
G1 X135.33 Y163.152 E15.62353
G1 X135.049 Y163.225 E15.63318
G1 X134.295 Y163.38 E15.65879
G1 X133.188 Y163.463 E15.69571
G1 X80.815 Y163.464 E17.43764
G1 X80.047 Y163.424 E17.46322
G1 X79.287 Y163.305 E17.48881
G1 X78.602 Y163.125 E17.51236
G1 X78.267 Y163.02 E17.52404
G1 X77.546 Y162.752 E17.54962
G1 X76.856 Y162.411 E17.57522
G1 X76.206 Y162 E17.6008
G1 X75.602 Y161.524 E17.62638
G1 X74.809 Y160.713 E17.6641
G1 X74.617 Y160.484 E17.67404
G1 X74.155 Y159.87 E17.6996
G1 X73.758 Y159.211 E17.72519
G1 X73.432 Y158.514 E17.75078
G1 X73.18 Y157.788 E17.77634
G1 X73.029 Y157.167 E17.7976
G1 X72.972 Y156.879 E17.80736
G1 X72.862 Y156.117 E17.83297
G1 X72.831 Y155.442 E17.85544
G1 X72.831 Y78.475 E20.41538
G1 X72.871 Y77.707 E20.44096
G1 X72.99 Y76.947 E20.46654
G1 X73.188 Y76.204 E20.49212
G1 X73.36 Y75.727 E20.50898
G1 X73.498 Y75.382 E20.52134
G1 X73.821 Y74.683 E20.54695
G1 X74.214 Y74.022 E20.57253
G1 X74.673 Y73.406 E20.59808
G1 X75.195 Y72.84 E20.62369
G0 F8400 X75.533 Y73.069
G1 F2700 X76.101 Y72.582 E20.64857
G1 X76.872 Y72.066 E20.67943
G1 X77.224 Y71.863 E20.69294
G1 X77.891 Y71.525 E20.71781
G1 X78.59 Y71.259 E20.74269
G1 X79.314 Y71.07 E20.76758
G1 X80.054 Y70.959 E20.79247
G1 X80.721 Y70.927 E20.81468
G1 X133.262 Y70.927 E22.5622
G1 X134.009 Y70.967 E22.58708
G1 X134.747 Y71.086 E22.61194
G1 X135.469 Y71.284 E22.63684
G1 X136.482 Y71.711 E22.6734
G1 X136.843 Y71.898 E22.68693
G1 X137.488 Y72.277 E22.71181
G1 X138.088 Y72.723 E22.73667
G1 X138.638 Y73.231 E22.76158
G1 X139.131 Y73.794 E22.78647
G1 X139.56 Y74.406 E22.81132
G1 X140.056 Y75.354 E22.84691
G1 X140.195 Y75.678 E22.85864
G1 X140.453 Y76.38 E22.88351
G1 X140.64 Y77.137 E22.90945
G1 X140.647 Y77.174 E22.9107
G1 X140.747 Y77.915 E22.93557
G1 X140.769 Y78.475 E22.95421
G1 X140.77 Y155.444 E25.51421
G1 X140.73 Y156.191 E25.53909
G1 X140.561 Y157.142 E25.57121
G1 X140.478 Y157.474 E25.5826
G1 X140.258 Y158.189 E25.60748
G1 X139.963 Y158.876 E25.63234
G1 X139.596 Y159.528 E25.65723
G1 X139.162 Y160.137 E25.6821
G1 X138.591 Y160.771 E25.71048
G1 X138.373 Y160.985 E25.72064
G1 X137.812 Y161.48 E25.74553
G1 X137.201 Y161.912 E25.77041
G1 X136.548 Y162.277 E25.79529
G1 X135.859 Y162.569 E25.82018
G1 X135.229 Y162.765 E25.84213
G1 X134.948 Y162.838 E25.85179
G1 X134.215 Y162.987 E25.87666
G1 X133.188 Y163.063 E25.91091
G1 X80.815 Y163.064 E27.65285
G1 X80.068 Y163.024 E27.67773
G1 X79.33 Y162.905 E27.70259
G1 X78.721 Y162.744 E27.72354
G1 X78.386 Y162.639 E27.73522
G1 X77.686 Y162.377 E27.76008
G1 X77.017 Y162.042 E27.78496
G1 X76.387 Y161.638 E27.80986
G1 X75.805 Y161.169 E27.83472
G1 X75.116 Y160.456 E27.86769
G1 X74.924 Y160.227 E27.87763
G1 X74.475 Y159.629 E27.90251
G1 X74.092 Y158.987 E27.92737
G1 X73.78 Y158.307 E27.95225
G1 X73.542 Y157.598 E27.97713
G1 X73.421 Y157.089 E27.99453
G1 X73.364 Y156.801 E28.00429
G1 X73.258 Y156.061 E28.02916
G1 X73.231 Y155.442 E28.04977
G1 X73.231 Y78.475 E30.6097
G1 X73.271 Y77.728 E30.63458
G1 X73.39 Y76.99 E30.65944
G1 X73.588 Y76.268 E30.68434
G1 X73.87 Y75.53 E30.71062
G1 X74.184 Y74.852 E30.73547
G1 X74.569 Y74.21 E30.76037
G1 X75.021 Y73.614 E30.78525
G1 X75.533 Y73.069 E30.81012
G0 F8400 X75.871 Y73.3
G1 F2700 X76.429 Y72.835 E30.83428
G1 X77.072 Y72.413 E30.85986
G1 X77.424 Y72.21 E30.87337
G1 X78.072 Y71.882 E30.89753
G1 X78.752 Y71.627 E30.92168
G1 X79.456 Y71.449 E30.94584
G1 X80.176 Y71.35 E30.97001
G1 X80.721 Y71.327 E30.98815
G1 X133.262 Y71.327 E32.73567
G1 X133.987 Y71.367 E32.75982
G1 X134.704 Y71.486 E32.784
G1 X135.403 Y71.684 E32.80816
G1 X136.298 Y72.067 E32.84054
G1 X136.659 Y72.254 E32.85406
G1 X137.284 Y72.623 E32.8782
G1 X137.866 Y73.058 E32.90237
G1 X138.395 Y73.555 E32.92651
G1 X138.868 Y74.107 E32.95069
G1 X139.276 Y74.708 E32.97485
G1 X139.688 Y75.512 E33.0049
G1 X139.827 Y75.836 E33.01662
G1 X140.077 Y76.518 E33.04078
G1 X140.247 Y77.211 E33.06451
G1 X140.254 Y77.248 E33.06577
G1 X140.35 Y77.968 E33.08993
G1 X140.369 Y78.475 E33.1068
G1 X140.37 Y155.444 E35.6668
G1 X140.33 Y156.169 E35.69095
G1 X140.173 Y157.045 E35.72055
G1 X140.09 Y157.377 E35.73193
G1 X139.875 Y158.071 E35.7561
G1 X139.586 Y158.737 E35.78024
G1 X139.225 Y159.367 E35.8044
G1 X138.796 Y159.954 E35.82858
G1 X138.31 Y160.486 E35.85254
G1 X138.092 Y160.7 E35.8627
G1 X137.547 Y161.179 E35.88684
G1 X136.952 Y161.596 E35.911
G1 X136.315 Y161.945 E35.93516
G1 X135.643 Y162.222 E35.95934
G1 X135.129 Y162.378 E35.9772
G1 X134.848 Y162.451 E35.98686
G1 X134.135 Y162.595 E36.01105
G1 X133.188 Y162.663 E36.04263
G1 X80.815 Y162.664 E37.78456
G1 X80.09 Y162.624 E37.80871
G1 X79.373 Y162.505 E37.83289
G1 X78.841 Y162.362 E37.85121
G1 X78.506 Y162.257 E37.86289
G1 X77.826 Y162.002 E37.88704
G1 X77.178 Y161.674 E37.9112
G1 X76.57 Y161.276 E37.93537
G1 X76.009 Y160.814 E37.95954
G1 X75.422 Y160.199 E37.98782
G1 X75.23 Y159.97 E37.99775
G1 X74.795 Y159.389 E38.02189
G1 X74.426 Y158.763 E38.04606
G1 X74.128 Y158.101 E38.07021
G1 X73.905 Y157.409 E38.09439
G1 X73.757 Y156.723 E38.11773
G1 X73.655 Y156.004 E38.14189
G1 X73.631 Y155.442 E38.1606
G1 X73.631 Y78.475 E40.72053
G1 X73.671 Y77.75 E40.74468
G1 X73.79 Y77.033 E40.76885
G1 X74.103 Y76.024 E40.80399
G1 X74.241 Y75.679 E40.81635
G1 X74.548 Y75.02 E40.84053
G1 X74.924 Y74.399 E40.86467
G1 X75.367 Y73.824 E40.88882
G1 X75.871 Y73.3 E40.913
G0 F8400 X76.207 Y73.534
G1 F2700 X76.755 Y73.092 E40.93641
G1 X77.272 Y72.759 E40.95687
G1 X77.624 Y72.556 E40.97038
G1 X78.252 Y72.24 E40.99377
G1 X78.913 Y71.996 E41.0172
G1 X79.597 Y71.83 E41.04061
G1 X80.295 Y71.742 E41.06401
G1 X80.721 Y71.727 E41.07819
G1 X133.262 Y71.727 E42.82571
G1 X133.965 Y71.767 E42.84913
G1 X134.659 Y71.886 E42.87255
G1 X135.334 Y72.084 E42.89594
G1 X136.114 Y72.422 E42.92422
G1 X136.475 Y72.609 E42.93774
G1 X137.08 Y72.968 E42.96114
G1 X137.642 Y73.393 E42.98457
G1 X138.151 Y73.879 E43.00798
G1 X138.602 Y74.419 E43.03138
G1 X138.989 Y75.007 E43.05479
G1 X139.321 Y75.67 E43.07946
G1 X139.46 Y75.994 E43.09118
G1 X139.7 Y76.655 E43.11457
G1 X139.854 Y77.285 E43.13614
G1 X139.861 Y77.322 E43.13739
G1 X139.952 Y78.021 E43.16084
G1 X139.969 Y78.475 E43.17595
G1 X139.97 Y155.444 E45.73595
G1 X139.93 Y156.147 E45.75937
G1 X139.785 Y156.948 E45.78644
G1 X139.702 Y157.28 E45.79783
G1 X139.493 Y157.952 E45.82123
G1 X139.209 Y158.596 E45.84464
G1 X138.853 Y159.204 E45.86808
G1 X138.431 Y159.767 E45.89148
G1 X138.03 Y160.2 E45.91111
G1 X137.812 Y160.414 E45.92127
G1 X137.283 Y160.878 E45.94467
G1 X136.704 Y161.279 E45.9681
G1 X136.084 Y161.612 E45.9915
G1 X135.429 Y161.872 E46.01494
G1 X134.747 Y162.064 E46.03851
G1 X134.057 Y162.202 E46.06191
G1 X133.188 Y162.263 E46.09089
G1 X80.815 Y162.264 E47.83282
G1 X80.112 Y162.224 E47.85624
G1 X79.418 Y162.105 E47.87966
G1 X78.626 Y161.875 E47.90709
G1 X77.967 Y161.627 E47.93051
G1 X77.341 Y161.305 E47.95392
G1 X76.755 Y160.915 E47.97733
G1 X76.217 Y160.461 E48.00075
G1 X75.729 Y159.942 E48.02444
G1 X75.537 Y159.713 E48.03438
G1 X75.116 Y159.149 E48.05779
G1 X74.762 Y158.541 E48.08119
G1 X74.479 Y157.896 E48.10462
G1 X74.206 Y156.934 E48.13788
G1 X74.149 Y156.646 E48.14764
G1 X74.052 Y155.948 E48.17108
G1 X74.031 Y155.442 E48.18792
G1 X74.031 Y78.475 E50.74786
G1 X74.071 Y77.772 E50.77128
G1 X74.19 Y77.078 E50.7947
G1 X74.474 Y76.172 E50.82628
G1 X74.612 Y75.827 E50.83863
G1 X74.911 Y75.19 E50.86204
G1 X75.279 Y74.59 E50.88545
G1 X75.713 Y74.036 E50.90886
G1 X76.207 Y73.534 E50.93228
G0 F8400 X76.058 Y74.25
G1 F2700 X76.543 Y73.771 E50.95495
G1 X77.08 Y73.353 E50.97759
G1 X77.823 Y72.903 E51.00648
G1 X78.432 Y72.598 E51.02913
G1 X79.073 Y72.366 E51.05181
G1 X79.736 Y72.211 E51.07445
G1 X80.721 Y72.127 E51.10733
G1 X133.262 Y72.127 E52.85485
G1 X133.942 Y72.167 E52.87751
G1 X134.612 Y72.286 E52.90014
G1 X135.264 Y72.483 E52.9228
G1 X135.93 Y72.777 E52.94701
G1 X136.291 Y72.964 E52.96053
G1 X136.876 Y73.312 E52.98317
G1 X137.416 Y73.726 E53.0058
G1 X137.904 Y74.201 E53.02845
G1 X138.333 Y74.73 E53.05111
G1 X138.697 Y75.305 E53.07374
G1 X138.953 Y75.827 E53.09308
G1 X139.092 Y76.151 E53.1048
G1 X139.323 Y76.792 E53.12747
G1 X139.461 Y77.36 E53.14691
G1 X139.468 Y77.397 E53.14816
G1 X139.555 Y78.072 E53.1708
G1 X139.569 Y78.475 E53.18421
G1 X139.57 Y155.444 E55.74421
G1 X139.53 Y156.124 E55.76686
G1 X139.397 Y156.851 E55.79144
G1 X139.314 Y157.183 E55.80283
G1 X139.11 Y157.832 E55.82545
G1 X138.832 Y158.454 E55.84811
G1 X138.483 Y159.038 E55.87074
G1 X138.067 Y159.578 E55.89341
G1 X137.532 Y160.129 E55.91896
G1 X137.019 Y160.577 E55.94161
G1 X136.457 Y160.961 E55.96425
G1 X135.854 Y161.277 E55.98689
G1 X134.927 Y161.604 E56.01959
G1 X134.646 Y161.677 E56.02924
G1 X133.978 Y161.809 E56.05189
G1 X133.188 Y161.863 E56.07823
G1 X80.815 Y161.864 E57.82016
G1 X80.135 Y161.824 E57.84282
G1 X79.465 Y161.705 E57.86545
G1 X78.745 Y161.494 E57.8904
G1 X78.109 Y161.252 E57.91304
G1 X77.505 Y160.938 E57.93568
G1 X76.942 Y160.555 E57.95833
G1 X76.428 Y160.108 E57.98098
G1 X76.035 Y159.685 E58.00019
G1 X75.843 Y159.456 E58.01013
G1 X75.437 Y158.91 E58.03276
G1 X75.098 Y158.32 E58.05539
G1 X74.83 Y157.693 E58.07807
G1 X74.598 Y156.856 E58.10696
G1 X74.541 Y156.568 E58.11672
G1 X74.449 Y155.894 E58.13935
G1 X74.431 Y155.442 E58.15439
G1 X74.431 Y78.475 E60.71432
G1 X74.471 Y77.795 E60.73698
G1 X74.59 Y77.125 E60.75961
G1 X74.846 Y76.321 E60.78768
G1 X74.984 Y75.976 E60.80004
G1 X75.273 Y75.36 E60.82267
G1 X75.633 Y74.782 E60.84531
G1 X76.058 Y74.25 E60.86796
G0 F8400 X76.402 Y74.466
G1 F2700 X76.876 Y74.012 E60.88979
G1 X77.671 Y73.452 E60.92214
G1 X78.023 Y73.249 E60.93565
G1 X78.611 Y72.956 E60.9575
G1 X79.231 Y72.737 E60.97937
G1 X79.872 Y72.594 E61.00122
G1 X80.721 Y72.527 E61.02954
G1 X133.262 Y72.527 E62.77706
G1 X133.918 Y72.567 E62.79892
G1 X134.564 Y72.686 E62.82077
G1 X135.191 Y72.883 E62.84263
G1 X135.746 Y73.132 E62.86286
G1 X136.107 Y73.319 E62.87638
G1 X136.671 Y73.656 E62.89823
G1 X137.189 Y74.059 E62.92006
G1 X137.655 Y74.522 E62.94191
G1 X138.062 Y75.039 E62.9638
G1 X138.402 Y75.6 E62.98561
G1 X138.725 Y76.309 E63.01153
G1 X138.946 Y76.927 E63.03336
G1 X139.068 Y77.434 E63.0507
G1 X139.075 Y77.471 E63.05195
G1 X139.158 Y78.123 E63.07381
G1 X139.169 Y78.475 E63.08553
G1 X139.17 Y155.444 E65.64553
G1 X139.13 Y156.1 E65.66739
G1 X139.009 Y156.754 E65.68951
G1 X138.926 Y157.086 E65.70089
G1 X138.728 Y157.712 E65.72273
G1 X138.456 Y158.31 E65.74458
G1 X138.113 Y158.87 E65.76642
G1 X137.704 Y159.385 E65.78829
G1 X137.252 Y159.844 E65.80972
G1 X136.756 Y160.274 E65.83155
G1 X136.211 Y160.642 E65.85342
G1 X135.626 Y160.94 E65.87526
G1 X134.827 Y161.217 E65.90339
G1 X134.546 Y161.29 E65.91304
G1 X133.901 Y161.416 E65.9349
G1 X133.188 Y161.463 E65.95867
G1 X80.815 Y161.464 E67.7006
G1 X80.159 Y161.424 E67.72246
G1 X79.2 Y161.217 E67.75509
G1 X78.865 Y161.112 E67.76677
G1 X78.251 Y160.878 E67.78862
G1 X77.67 Y160.571 E67.81048
G1 X77.131 Y160.195 E67.83234
G1 X76.642 Y159.757 E67.85417
G1 X76.15 Y159.199 E67.87891
G1 X75.759 Y158.671 E67.90077
G1 X75.436 Y158.1 E67.92259
G1 X75.184 Y157.493 E67.94445
G1 X74.991 Y156.778 E67.96908
G1 X74.934 Y156.49 E67.97884
G1 X74.846 Y155.839 E68.00069
G1 X74.831 Y155.442 E68.01391
G1 X74.831 Y78.475 E70.57384
G1 X74.871 Y77.819 E70.5957
G1 X74.99 Y77.173 E70.61754
G1 X75.217 Y76.469 E70.64215
G1 X75.355 Y76.124 E70.65451
