;FLAVOR:Marlin
;TIME:9999
;Filament used: 10.6842m
;Layer height: 0.2
;MINX:72.431
;MINY:56.713
;MINZ:0.2
;MAXX:141.57
;MAXY:177.287
;MAXZ:41
;Generated with Cura_SteamEngine 4.8.0
M140 S60
M105
M190 S60
M104 S200
M105
M109 S200
M82 ;absolute extrusion mode
;Layer height: 0.2
;Walls: 1
;Fill: 99
;Top\Bottom Thickness: 0.6
G90 ;absolute positioning
M82 ;set extruder to absolute mode
G4 S1 ;1 millisecond pause to buffer the bep bep 
M300 S2 ;FAB bep bep (start the print, go check the oozing and skirt lines adesion) 
G4 S1 ;1 second pause to reach the printer (run fast)
G92 E0 ;zero the extruded length 
G1 F200 E35    ;slowly extrude 35mm of filament to clean the nozzle and build up extrusion pressure 
G92 E0 ;zero the extruded length again 
;print
G92 E0
G92 E0
G1 F1380 E-2.5
;LAYER_COUNT:205
;LAYER:0
M107
G0 F8400 X74.855 Y72.62 Z0.2
;TYPE:SKIRT
G1 F1380 E0
G1 F2700 X75.441 Y72.091 E0.02626
G1 X76.078 Y71.624 E0.05253
G1 X76.824 Y71.177 E0.08145
G1 X77.527 Y70.818 E0.10771
G1 X78.263 Y70.531 E0.13398
G1 X79.024 Y70.321 E0.16024
G1 X79.803 Y70.188 E0.18652
G1 X80.721 Y70.134 E0.21711
G1 X92.973 Y70.134 E0.62461
G1 X93.022 Y69.398 E0.64915
G1 X93.157 Y68.387 E0.68307
G1 X93.315 Y67.598 E0.70983
G1 X93.576 Y66.627 E0.74328
G1 X93.841 Y65.845 E0.77074
G1 X94.234 Y64.894 E0.80496
G1 X94.595 Y64.163 E0.83208
G1 X95.109 Y63.275 E0.86621
G1 X95.566 Y62.593 E0.89351
G1 X96.193 Y61.78 E0.92766
G1 X96.732 Y61.168 E0.95478
G1 X97.443 Y60.458 E0.9882
G1 X98.051 Y59.925 E1.01509
G1 X98.855 Y59.307 E1.04882
G1 X99.535 Y58.852 E1.07604
G1 X100.415 Y58.343 E1.10985
G1 X101.149 Y57.98 E1.13708
G1 X102.1 Y57.586 E1.17132
G1 X102.872 Y57.324 E1.19844
G1 X103.849 Y57.061 E1.23209
G1 X104.649 Y56.901 E1.25922
G1 X105.676 Y56.766 E1.29367
G1 X106.496 Y56.713 E1.32101
G1 X107.494 Y56.713 E1.3542
G1 X108.312 Y56.765 E1.38146
G1 X109.341 Y56.899 E1.41597
G1 X110.144 Y57.059 E1.44321
G1 X111.127 Y57.323 E1.47706
G1 X111.89 Y57.582 E1.50386
G1 X112.817 Y57.965 E1.53722
G1 X113.547 Y58.323 E1.56426
G1 X114.437 Y58.835 E1.59841
G1 X115.123 Y59.292 E1.62583
G1 X115.944 Y59.921 E1.66023
G1 X116.565 Y60.466 E1.68771
G1 X117.28 Y61.18 E1.72132
G1 X117.822 Y61.797 E1.74863
G1 X118.451 Y62.616 E1.78298
G1 X118.906 Y63.298 E1.81025
G1 X119.416 Y64.185 E1.84428
G1 X119.775 Y64.915 E1.87133
G1 X120.166 Y65.862 E1.90541
G1 X120.427 Y66.635 E1.93255
G1 X120.686 Y67.604 E1.96591
G1 X120.846 Y68.406 E1.99311
G1 X120.981 Y69.426 E2.02733
G1 X121.027 Y70.134 E2.05093
G1 X133.257 Y70.134 E2.4577
G1 X134.046 Y70.174 E2.48397
G1 X134.826 Y70.293 E2.51022
G1 X135.591 Y70.491 E2.5365
G1 X136.503 Y70.842 E2.569
G1 X136.822 Y70.988 E2.58067
G1 X137.523 Y71.352 E2.60694
G1 X138.183 Y71.786 E2.63321
G1 X138.795 Y72.284 E2.65946
G1 X139.355 Y72.841 E2.68573
G1 X140.066 Y73.753 E2.72419
G1 X140.232 Y74.002 E2.73414
G1 X140.636 Y74.681 E2.76042
G1 X140.97 Y75.397 E2.7867
G1 X141.229 Y76.142 E2.81293
G1 X141.41 Y76.901 E2.83888
G1 X141.437 Y77.046 E2.84379
G1 X141.542 Y77.829 E2.87007
G1 X141.569 Y78.474 E2.89154
G1 X141.57 Y155.451 E5.4518
G1 X141.53 Y156.24 E5.47808
G1 X141.341 Y157.327 E5.51478
G1 X141.258 Y157.662 E5.52625
G1 X141.03 Y158.418 E5.55252
G1 X140.726 Y159.147 E5.57879
G1 X140.35 Y159.841 E5.60504
G1 X139.906 Y160.494 E5.6313
G1 X139.398 Y161.099 E5.65758
G1 X138.881 Y161.613 E5.68183
G1 X138.285 Y162.131 E5.70809
G1 X137.64 Y162.587 E5.73436
G1 X136.952 Y162.975 E5.76063
G1 X136.229 Y163.291 E5.78688
G1 X135.468 Y163.535 E5.81346
G1 X135.185 Y163.61 E5.8232
G1 X134.413 Y163.773 E5.84944
G1 X133.627 Y163.858 E5.87573
G1 X133.187 Y163.87 E5.89037
G1 X121.027 Y163.87 E6.29482
G1 X120.978 Y164.602 E6.31922
G1 X120.843 Y165.613 E6.35314
G1 X120.685 Y166.402 E6.37991
G1 X120.424 Y167.373 E6.41335
G1 X120.159 Y168.155 E6.44081
G1 X119.766 Y169.106 E6.47503
G1 X119.405 Y169.837 E6.50215
G1 X118.891 Y170.725 E6.53628
G1 X118.434 Y171.407 E6.56358
G1 X117.807 Y172.22 E6.59773
G1 X117.268 Y172.832 E6.62485
G1 X116.557 Y173.542 E6.65827
G1 X115.949 Y174.075 E6.68517
G1 X115.145 Y174.693 E6.71889
G1 X114.465 Y175.148 E6.74611
G1 X113.585 Y175.657 E6.77992
G1 X112.851 Y176.02 E6.80716
G1 X111.9 Y176.414 E6.84139
G1 X111.128 Y176.676 E6.86851
G1 X110.151 Y176.939 E6.90216
G1 X109.351 Y177.099 E6.92929
G1 X108.324 Y177.234 E6.96375
G1 X107.504 Y177.287 E6.99108
G1 X106.506 Y177.287 E7.02427
G1 X105.688 Y177.235 E7.05153
G1 X104.659 Y177.101 E7.08605
G1 X103.856 Y176.941 E7.11328
G1 X102.873 Y176.677 E7.14713
G1 X102.11 Y176.418 E7.17393
G1 X101.182 Y176.035 E7.20732
G1 X100.448 Y175.675 E7.23451
G1 X99.554 Y175.161 E7.26881
G1 X98.872 Y174.706 E7.29608
G1 X98.055 Y174.078 E7.33035
G1 X97.432 Y173.531 E7.35793
G1 X96.717 Y172.816 E7.39156
G1 X96.177 Y172.201 E7.41878
G1 X95.548 Y171.382 E7.45313
G1 X95.092 Y170.698 E7.48047
G1 X94.581 Y169.809 E7.51458
G1 X94.222 Y169.078 E7.54166
G1 X93.833 Y168.135 E7.57559
G1 X93.573 Y167.365 E7.60262
G1 X93.314 Y166.396 E7.63598
G1 X93.154 Y165.594 E7.66318
G1 X93.019 Y164.574 E7.6974
G1 X92.973 Y163.871 E7.72084
G1 X80.812 Y163.871 E8.12531
G1 X80.023 Y163.831 E8.15159
G1 X79.243 Y163.712 E8.17783
G1 X78.475 Y163.513 E8.20422
G1 X78.147 Y163.41 E8.21565
G1 X77.407 Y163.135 E8.24191
G1 X76.698 Y162.787 E8.26818
G1 X76.028 Y162.37 E8.29443
G1 X75.403 Y161.886 E8.32072
G1 X74.831 Y161.342 E8.34697
G1 X74.331 Y160.771 E8.37222
G1 X73.852 Y160.143 E8.39849
G1 X73.439 Y159.47 E8.42475
G1 X73.097 Y158.758 E8.45102
G1 X72.828 Y158.016 E8.47727
G1 X72.632 Y157.234 E8.50409
G1 X72.576 Y156.948 E8.51378
G1 X72.464 Y156.166 E8.54005
G1 X72.431 Y155.449 E8.56393
G1 X72.431 Y78.482 E11.12386
G1 X72.471 Y77.693 E11.15013
G1 X72.59 Y76.913 E11.17638
G1 X72.788 Y76.148 E11.20266
G1 X72.989 Y75.585 E11.22254
G1 X73.127 Y75.24 E11.2349
G1 X73.457 Y74.523 E11.26115
G1 X73.858 Y73.842 E11.28744
G1 X74.325 Y73.206 E11.31368
G1 X74.855 Y72.62 E11.33996
G0 F8400 X75.195 Y72.847
G1 F2700 X75.772 Y72.338 E11.36555
G1 X76.672 Y71.727 E11.40173
G1 X77.024 Y71.524 E11.41525
G1 X77.709 Y71.175 E11.44082
G1 X78.427 Y70.898 E11.46642
G1 X79.17 Y70.698 E11.49201
G1 X79.929 Y70.576 E11.51758
G1 X80.721 Y70.534 E11.54395
G1 X93.357 Y70.534 E11.96423
G1 X93.367 Y70.247 E11.97378
G1 X93.422 Y69.425 E12.00118
G1 X93.549 Y68.466 E12.03336
G1 X93.707 Y67.677 E12.06012
G1 X93.954 Y66.755 E12.09187
G1 X94.219 Y65.973 E12.11933
G1 X94.593 Y65.071 E12.15181
G1 X94.954 Y64.34 E12.17892
G1 X95.442 Y63.498 E12.21129
G1 X95.899 Y62.816 E12.2386
G1 X96.493 Y62.044 E12.271
G1 X97.032 Y61.432 E12.29812
G1 X97.707 Y60.758 E12.32985
G1 X98.315 Y60.225 E12.35674
G1 X99.078 Y59.64 E12.38872
G1 X99.758 Y59.185 E12.41593
G1 X100.593 Y58.702 E12.44801
G1 X101.327 Y58.339 E12.47525
G1 X102.229 Y57.965 E12.50773
G1 X103.001 Y57.703 E12.53484
G1 X103.928 Y57.454 E12.56677
G1 X104.728 Y57.294 E12.5939
G1 X105.702 Y57.165 E12.62658
G1 X106.522 Y57.112 E12.65391
G1 X107.468 Y57.112 E12.68537
G1 X108.286 Y57.164 E12.71264
G1 X109.263 Y57.292 E12.74541
G1 X110.066 Y57.452 E12.77264
G1 X110.999 Y57.702 E12.80477
G1 X111.762 Y57.961 E12.83157
G1 X112.641 Y58.324 E12.8632
G1 X113.371 Y58.682 E12.89024
G1 X114.216 Y59.167 E12.92265
G1 X114.902 Y59.624 E12.95006
G1 X115.68 Y60.221 E12.98268
G1 X116.301 Y60.766 E13.01016
G1 X116.98 Y61.444 E13.04207
G1 X117.522 Y62.061 E13.06939
G1 X118.118 Y62.838 E13.10196
G1 X118.573 Y63.52 E13.12923
G1 X119.057 Y64.361 E13.1615
G1 X119.416 Y65.091 E13.18856
G1 X119.787 Y65.99 E13.2209
G1 X120.048 Y66.763 E13.24804
G1 X120.294 Y67.682 E13.27968
G1 X120.454 Y68.484 E13.30688
G1 X120.581 Y69.452 E13.33935
G1 X120.634 Y70.267 E13.36652
G1 X120.643 Y70.534 E13.3754
G1 X133.257 Y70.534 E13.79495
G1 X134.025 Y70.574 E13.82053
G1 X134.785 Y70.693 E13.84611
G1 X135.528 Y70.891 E13.87169
G1 X136.337 Y71.205 E13.90055
G1 X136.656 Y71.351 E13.91222
G1 X137.337 Y71.707 E13.93778
G1 X137.979 Y72.132 E13.96338
G1 X138.572 Y72.621 E13.98895
G1 X139.112 Y73.169 E14.01454
G1 X139.733 Y73.975 E14.04838
G1 X139.899 Y74.224 E14.05833
G1 X140.292 Y74.886 E14.08394
G1 X140.614 Y75.584 E14.1095
G1 X140.862 Y76.312 E14.13508
G1 X141.017 Y76.974 E14.1577
G1 X141.044 Y77.119 E14.1626
G1 X141.145 Y77.882 E14.1882
G1 X141.169 Y78.474 E14.20791
G1 X141.17 Y155.451 E16.76817
G1 X141.13 Y156.219 E16.79375
G1 X140.953 Y157.231 E16.82792
G1 X140.87 Y157.566 E16.8394
G1 X140.646 Y158.302 E16.86499
G1 X140.348 Y159.01 E16.89054
G1 X139.977 Y159.684 E16.91613
G1 X139.538 Y160.316 E16.94172
G1 X138.82 Y161.116 E16.97748
G1 X138.603 Y161.325 E16.9875
G1 X138.022 Y161.829 E17.01308
G1 X137.392 Y162.27 E17.03866
G1 X136.72 Y162.643 E17.06422
G1 X136.012 Y162.945 E17.08982
G1 X135.366 Y163.148 E17.11234
G1 X135.083 Y163.223 E17.12208
G1 X134.33 Y163.381 E17.14767
G1 X133.187 Y163.47 E17.1858
G1 X120.643 Y163.47 E17.60302
G1 X120.633 Y163.753 E17.61243
G1 X120.578 Y164.575 E17.63983
G1 X120.451 Y165.534 E17.67201
G1 X120.293 Y166.323 E17.69877
G1 X120.046 Y167.245 E17.73052
G1 X119.781 Y168.027 E17.75798
G1 X119.407 Y168.929 E17.79046
G1 X119.046 Y169.66 E17.81758
G1 X118.558 Y170.502 E17.84994
G1 X118.101 Y171.184 E17.87725
G1 X117.507 Y171.956 E17.90965
G1 X116.968 Y172.568 E17.93677
G1 X116.293 Y173.242 E17.9685
G1 X115.685 Y173.775 E17.99539
G1 X114.922 Y174.36 E18.02737
G1 X114.242 Y174.815 E18.05458
G1 X113.407 Y175.298 E18.08667
G1 X112.673 Y175.661 E18.1139
G1 X111.771 Y176.035 E18.14638
G1 X110.999 Y176.297 E18.17349
G1 X110.072 Y176.546 E18.20542
G1 X109.272 Y176.706 E18.23255
G1 X108.298 Y176.835 E18.26523
G1 X107.478 Y176.888 E18.29256
G1 X106.532 Y176.888 E18.32403
G1 X105.714 Y176.836 E18.35129
G1 X104.737 Y176.708 E18.38406
G1 X103.934 Y176.548 E18.41129
G1 X103.001 Y176.298 E18.44342
G1 X102.238 Y176.039 E18.47022
G1 X101.358 Y175.676 E18.50188
G1 X100.624 Y175.316 E18.52907
G1 X99.776 Y174.828 E18.56161
G1 X99.094 Y174.373 E18.58888
G1 X98.319 Y173.778 E18.62138
G1 X97.696 Y173.231 E18.64895
G1 X97.017 Y172.553 E18.68087
G1 X96.477 Y171.938 E18.70809
G1 X95.881 Y171.16 E18.74069
G1 X95.425 Y170.476 E18.76803
G1 X94.94 Y169.633 E18.80038
G1 X94.581 Y168.902 E18.82746
G1 X94.212 Y168.007 E18.85966
G1 X93.952 Y167.237 E18.88669
G1 X93.706 Y166.318 E18.91833
G1 X93.546 Y165.516 E18.94553
G1 X93.419 Y164.548 E18.97801
G1 X93.366 Y163.733 E19.00517
G1 X93.357 Y163.471 E19.01389
G1 X80.812 Y163.471 E19.43114
G1 X80.044 Y163.431 E19.45672
G1 X79.284 Y163.312 E19.4823
G1 X78.595 Y163.131 E19.506
G1 X78.267 Y163.028 E19.51743
G1 X77.546 Y162.76 E19.54301
G1 X76.857 Y162.418 E19.5686
G1 X76.207 Y162.007 E19.59418
G1 X75.603 Y161.53 E19.61977
G1 X74.833 Y160.746 E19.65632
G1 X74.636 Y160.513 E19.66647
G1 X74.171 Y159.9 E19.69206
G1 X73.771 Y159.243 E19.71765
G1 X73.442 Y158.548 E19.74322
G1 X73.187 Y157.822 E19.76881
G1 X73.025 Y157.157 E19.79158
G1 X72.969 Y156.871 E19.80127
G1 X72.861 Y156.109 E19.82687
G1 X72.831 Y155.449 E19.84884
G1 X72.831 Y78.482 E22.40878
G1 X72.871 Y77.714 E22.43436
G1 X72.99 Y76.954 E22.45994
G1 X73.188 Y76.211 E22.48552
G1 X73.36 Y75.734 E22.50238
G1 X73.498 Y75.389 E22.51474
G1 X73.821 Y74.69 E22.54035
G1 X74.214 Y74.029 E22.56593
G1 X74.673 Y73.413 E22.59148
G1 X75.195 Y72.847 E22.61709
G0 F8400 X75.533 Y73.076
G1 F2700 X76.101 Y72.589 E22.64197
G1 X76.872 Y72.073 E22.67283
G1 X77.224 Y71.87 E22.68634
G1 X77.891 Y71.532 E22.71121
G1 X78.59 Y71.266 E22.73609
G1 X79.314 Y71.077 E22.76098
G1 X80.054 Y70.966 E22.78586
G1 X80.721 Y70.934 E22.80807
G1 X93.75 Y70.934 E23.24142
G1 X93.766 Y70.274 E23.26338
G1 X93.821 Y69.452 E23.29078
G1 X93.941 Y68.545 E23.32121
G1 X94.099 Y67.756 E23.34797
G1 X94.333 Y66.883 E23.37803
G1 X94.598 Y66.101 E23.4055
G1 X94.952 Y65.248 E23.43621
G1 X95.313 Y64.517 E23.46333
G1 X95.774 Y63.72 E23.49395
G1 X96.231 Y63.038 E23.52126
G1 X96.793 Y62.308 E23.5519
G1 X97.332 Y61.696 E23.57902
G1 X97.971 Y61.059 E23.60903
G1 X98.579 Y60.526 E23.63593
G1 X99.3 Y59.972 E23.66617
G1 X99.98 Y59.517 E23.69338
G1 X100.77 Y59.06 E23.72374
G1 X101.504 Y58.697 E23.75097
G1 X102.357 Y58.343 E23.78169
G1 X103.129 Y58.081 E23.8088
G1 X104.006 Y57.846 E23.839
G1 X104.806 Y57.686 E23.86614
G1 X105.728 Y57.565 E23.89707
G1 X106.548 Y57.512 E23.9244
G1 X107.443 Y57.511 E23.95416
G1 X108.261 Y57.563 E23.98143
G1 X109.185 Y57.684 E24.01242
G1 X109.988 Y57.844 E24.03965
G1 X110.87 Y58.08 E24.07002
G1 X111.633 Y58.339 E24.09682
G1 X112.465 Y58.683 E24.12676
G1 X113.195 Y59.041 E24.15381
G1 X113.994 Y59.5 E24.18446
G1 X114.68 Y59.957 E24.21187
G1 X115.416 Y60.522 E24.24273
G1 X116.037 Y61.067 E24.27021
G1 X116.679 Y61.708 E24.30039
G1 X117.221 Y62.325 E24.3277
G1 X117.785 Y63.06 E24.35852
G1 X118.24 Y63.742 E24.38578
G1 X118.699 Y64.538 E24.41634
G1 X119.058 Y65.268 E24.4434
G1 X119.408 Y66.118 E24.47398
G1 X119.669 Y66.891 E24.50111
G1 X119.902 Y67.76 E24.53104
G1 X120.062 Y68.562 E24.55824
G1 X120.182 Y69.478 E24.58896
G1 X120.235 Y70.293 E24.61613
G1 X120.25 Y70.934 E24.63745
G1 X133.257 Y70.934 E25.07007
G1 X134.004 Y70.974 E25.09495
G1 X134.742 Y71.093 E25.11981
G1 X135.464 Y71.291 E25.14471
G1 X136.17 Y71.569 E25.16995
G1 X136.489 Y71.715 E25.18162
G1 X137.152 Y72.062 E25.20651
G1 X137.774 Y72.478 E25.23139
G1 X138.347 Y72.958 E25.25626
G1 X138.867 Y73.496 E25.28114
G1 X139.4 Y74.197 E25.31043
G1 X139.566 Y74.446 E25.32038
G1 X139.947 Y75.09 E25.34527
G1 X140.258 Y75.771 E25.37017
G1 X140.494 Y76.48 E25.39503
G1 X140.624 Y77.048 E25.41441
G1 X140.651 Y77.193 E25.41931
G1 X140.748 Y77.934 E25.44417
G1 X140.769 Y78.474 E25.46214
G1 X140.77 Y155.451 E28.02241
G1 X140.73 Y156.198 E28.04729
G1 X140.565 Y157.134 E28.0789
G1 X140.482 Y157.469 E28.09038
G1 X140.263 Y158.185 E28.11528
G1 X139.97 Y158.873 E28.14015
G1 X139.604 Y159.526 E28.16505
G1 X139.171 Y160.136 E28.18993
G1 X138.543 Y160.828 E28.22101
G1 X138.326 Y161.037 E28.23103
G1 X137.76 Y161.526 E28.25591
G1 X137.145 Y161.952 E28.28079
G1 X136.489 Y162.311 E28.30567
G1 X135.797 Y162.597 E28.33057
G1 X135.263 Y162.761 E28.34915
G1 X134.98 Y162.836 E28.35889
G1 X134.248 Y162.989 E28.38376
G1 X133.187 Y163.07 E28.41915
G1 X120.25 Y163.07 E28.84944
G1 X120.234 Y163.726 E28.87126
G1 X120.179 Y164.548 E28.89866
G1 X120.059 Y165.455 E28.92909
G1 X119.901 Y166.244 E28.95586
G1 X119.667 Y167.117 E28.98592
G1 X119.402 Y167.899 E29.01338
G1 X119.048 Y168.752 E29.0441
G1 X118.687 Y169.483 E29.07121
G1 X118.226 Y170.28 E29.10184
G1 X117.769 Y170.962 E29.12914
G1 X117.207 Y171.692 E29.15978
G1 X116.668 Y172.304 E29.18691
G1 X116.029 Y172.941 E29.21692
G1 X115.421 Y173.474 E29.24381
G1 X114.7 Y174.028 E29.27405
G1 X114.02 Y174.483 E29.30127
G1 X113.23 Y174.94 E29.33162
G1 X112.496 Y175.303 E29.35886
G1 X111.643 Y175.657 E29.38957
G1 X110.871 Y175.919 E29.41669
G1 X109.994 Y176.154 E29.44689
G1 X109.194 Y176.314 E29.47402
G1 X108.272 Y176.435 E29.50495
G1 X107.452 Y176.488 E29.53228
G1 X106.557 Y176.489 E29.56205
G1 X105.739 Y176.437 E29.58931
G1 X104.815 Y176.316 E29.62031
G1 X104.012 Y176.156 E29.64754
G1 X103.13 Y175.92 E29.67791
G1 X102.367 Y175.661 E29.70471
G1 X101.535 Y175.317 E29.73465
G1 X100.801 Y174.957 E29.76184
G1 X99.998 Y174.495 E29.79265
G1 X99.316 Y174.04 E29.81992
G1 X98.583 Y173.477 E29.85066
G1 X97.96 Y172.93 E29.87824
G1 X97.318 Y172.289 E29.90841
G1 X96.778 Y171.674 E29.93563
G1 X96.214 Y170.938 E29.96647
G1 X95.758 Y170.254 E29.99382
G1 X95.299 Y169.457 E30.02441
G1 X94.94 Y168.726 E30.05149
G1 X94.591 Y167.879 E30.08196
G1 X94.331 Y167.109 E30.10899
G1 X94.098 Y166.24 E30.13892
G1 X93.938 Y165.438 E30.16612
G1 X93.818 Y164.522 E30.19684
G1 X93.765 Y163.707 E30.22401
G1 X93.75 Y163.071 E30.24517
G1 X80.812 Y163.071 E30.67549
G1 X80.065 Y163.031 E30.70037
